app/static/images/icons/arrow.svg

<svg fill="none" viewBox="0 0 23 24" xmlns="http://www.w3.org/2000/svg"><path d="m22.0607 13.0607c.5857-.5858.5857-1.5356 0-2.1214l-9.546-9.5459c-.5858-.585789-1.5355-.585789-2.1213 0-.58579.58579-.58579 1.53553 0 2.12132l8.4853 8.48528-8.4853 8.4853c-.58579.5858-.58579 1.5355 0 2.1213.5858.5858 1.5355.5858 2.1213 0zm-22.0607.4393h21v-3h-21z" fill="#000"/></svg>

<svg viewBox="0 0 23 24" fill="none" xmlns="http://www.w3.org/2000/svg">
<path d="M22.0607 13.0607C22.6464 12.4749 22.6464 11.5251 22.0607 10.9393L12.5147 1.3934C11.9289 0.807611 10.9792 0.807611 10.3934 1.3934C9.80761 1.97919 9.80761 2.92893 10.3934 3.51472L18.8787 12L10.3934 20.4853C9.80761 21.0711 9.80761 22.0208 10.3934 22.6066C10.9792 23.1924 11.9289 23.1924 12.5147 22.6066L22.0607 13.0607ZM0 13.5L21 13.5V10.5L0 10.5L0 13.5Z" fill="#000"/>
</svg>
